!!!COM:	Isaac, Heinrich
!!!CDT:	~1450-1517/03/26
!!!OTL:	Credo I
!!!AGN:	Mass; Credo
!!!SCT:	Isa1038
!!!SCA:	Isa1038
!!!voices:	4
**kern	**kern	**kern	**kern
*staff4	*staff3	*staff2	*staff1
*Ivox	*Ivox	*Ivox	*Ivox
*I"Bassus	*I"Tenor	*I"Altus	*I"Discantus
*I'B	*I'T	*I'A	*I'D
*>[A,B]	*>[A,B]	*>[A,B]	*>[A,B]
*>A	*>A	*>A	*>A
*clefF4	*clefGv2	*clefGv2	*clefG2
*k[]	*k[]	*k[]	*k[]
*M2/1	*M2/1	*M2/1	*M2/1
*met(C|)	*met(C|)	*met(C|)	*met(C|)
!!section: Patrem omnipotentem
!!!OMD: Patrem omnipotentem
=1-	=1-	=1-	=1-
0r	0r	0a	0ee
=2	=2	=2	=2
0r	0r	0d	0ff
=3	=3	=3	=3
1A	1e	1a	1ee
2D\	2f\	2r	2r
2A\	2e\	2a\	2ee\
=4	=4	=4	=4
2A\	2f\	2a\	2cc\
2B\	2d\	2g\	2dd\
1A	1e	1a	2dd\
.	.	.	2cc#i\
=5	=5	=5	=5
1D	1d	1f	1dd
1r	1r	2r	2b\
.	.	2e\	2cc\
=6	=6	=6	=6
0r	0r	2f\	2dd\
.	.	2g\	2ee\
.	.	2g\	2dd\
.	.	2g\	2b\
=7	=7	=7	=7
0r	0r	2e\	2cc\
.	.	2f\	2dd\
.	.	2g\	4ee\
.	.	.	4dd\
.	.	4a\	4cc\
.	.	4g\	4b\
=8	=8	=8	=8
0r	0r	4f\	2a/
.	.	4e\	.
.	.	4d\	1dd
.	.	4f\	.
.	.	1e	.
.	.	.	2cc\
=9	=9	=9	=9
1r	2.d\	2.d\	2b\
.	.	.	2.dd\
.	4d\	4c\	.
2r	2d\	4B\	.
.	.	4A/	4cc\
[2G\	2d\	2G/	4b\
.	.	.	4a/
=10	=10	=10	=10
4G\]	1e	0r	1g
4G\	.	.	.
2G\	.	.	.
2G\	2d\	.	1r
[2A\	2c\	.	.
=11	=11	=11	=11
2A\]	1B	0r	0r
2G\	.	.	.
2F\	2A/	.	.
[2E\	[2e\	.	.
=12	=12	=12	=12
2E\]	2e\]	0r	0r
1D	1f	.	.
[2A\	[2e\	.	.
=13	=13	=13	=13
4A\]	2e\]	0r	0r
4B\	.	.	.
4c\	2c\	.	.
4A\	.	.	.
4B\	2d\	.	.
4A\	.	.	.
4G\	[2e\	.	.
4F\	.	.	.
=14	=14	=14	=14
4G\	4e\]	0r	0r
4D\	4f\	.	.
2F\	1d	.	.
1E	.	.	.
.	2c#i\	.	.
=15	=15	=15	=15
1D	1d	1r	1r
1G	1r	2r	2.b\
.	.	2e\	.
.	.	.	4cc\
=16	=16	=16	=16
0r	0r	2f\	2dd\
.	.	1g	2ee\
.	.	.	2dd\
.	.	[2a\	2cc\
=17	=17	=17	=17
0r	0r	2a\]	1b
.	.	2g\	.
.	.	2f\	1cc
.	.	[2e\	.
=18	=18	=18	=18
0r	0r	4e\]	2.b\
.	.	4f\	.
.	.	4g\	.
.	.	4a\	4cc\
.	.	2.f\	1dd
.	.	8e\L	.
.	.	8d\J	.
=19	=19	=19	=19
2r	1r	1c	1ee
2A\	.	.	.
2B-\	2r	1r	1r
2A\	2e\	.	.
=20	=20	=20	=20
2F\	2f\	0r	0r
2G\	2e\	.	.
2A\	2c\	.	.
2F\	2d\	.	.
=21	=21	=21	=21
4G\	2e\	0r	0r
4F\	.	.	.
4E\	2d\	.	.
4D\	.	.	.
2E\	2d\	.	.
2E\	2c#i\	.	.
=22	=22	=22	=22
1D	1d	1r	2r
.	.	.	1b
1r	1r	2r	.
.	.	2e\	2cc\
=23	=23	=23	=23
0r	0r	2f\	2dd\
.	.	2g\	2b\
.	.	2e\	2cc\
.	.	2f\	2dd\
=24	=24	=24	=24
2r	1r	2g\	1ee
2.A\	.	1.a	.
.	2r	.	1r
4B\	.	.	.
4c\	2e\	.	.
8B\L	.	.	.
8c\J	.	.	.
=25	=25	=25	=25
2d\	2f\	1a	0r
4c\	2e\	.	.
4B\	.	.	.
4A\	2c\	1r	.
4G\	.	.	.
4F\	2d\	.	.
4G\	.	.	.
=26	=26	=26	=26
2E\	2d\	1r	1r
2E\	2c#i\	.	.
2D\	1d	2r	2r
2G\	.	2g\	2dd\
=27	=27	=27	=27
1r	1r	2g\	2dd\
.	.	2e\	2ee\
2r	2r	2g\	2dd\
2G\	2d\	2g\	2b\
=28	=28	=28	=28
2G\	2d\	0r	0r
2E\	2e\	.	.
2G\	2.d\	.	.
2G\	.	.	.
.	4c\	.	.
=29	=29	=29	=29
1G	1B	2r	2r
.	.	2g\	2b\
1r	1r	2.g\	4b\
.	.	.	4a/
.	.	.	4b\
.	.	4a\	4cc\
=30	=30	=30	=30
0r	0r	2g\	2dd\
.	.	2e\	1ee
.	.	1f	.
.	.	.	2dd\
=31	=31	=31	=31
1r	2r	2e\	1ee
.	2e\	2g\	.
2r	2f\	2a\	2r
2G\	2e\	2g\	2b\
=32	=32	=32	=32
2A\	2c\	1e	2cc\
1G	1e	.	4b\
.	.	.	4a/
.	.	2r	4g/
.	.	.	4f/
2F\	[2d\	2A/	[2a/
=33	=33	=33	=33
1E	2d\]	2B\	4a/]
.	.	.	4g/
.	2c\	2c\	1g
1D	1d	1A	.
.	.	.	2f#i/
=34	=34	=34	=34
2.d\	1.B	0G	1g
4d\	.	.	.
2d\	.	.	1r
2e\	2G/	.	.
=35	=35	=35	=35
1d	0G	1r	2.dd\
.	.	.	4dd\
1B	.	2.g\	2dd\
.	.	.	2ee\
.	.	4g\	.
=36	=36	=36	=36
0r	0r	2g\	2dd\
.	.	2a\	2cc\
.	.	2.g\	1b
.	.	4f\	.
=37	=37	=37	=37
0r	0r	1e	2r
.	.	.	1cc
.	.	2r	.
.	.	2f\	2a/
=38	=38	=38	=38
0r	0r	2d\	2b\
.	.	2e\	2cc\
.	.	2f\	1dd
.	.	[2g\	.
=39	=39	=39	=39
0r	0r	2g\]	2b\
.	.	2e\	2cc\
.	.	2f\	1dd
.	.	2g\	.
=40	=40	=40	=40
2r	2r	2c\	0ee
2G\	2e\	2B\	.
2G\	2e\	2B\	.
2G\	2e\	2B\	.
=41	=41	=41	=41
2.A\	2.f\	2.c\	0r
4G\	4e\	4B\	.
2F\	2d\	2A/	.
2E\	2c#i\	2G/	.
=42	=42	=42	=42
2D\	0d	2A/	0r
1G	.	2B\	.
.	.	1A	.
2F#i\	.	.	.
=43	=43	=43	=43
[0G	1r	1G	2.b\
.	.	.	4cc\
.	2.B\	[1g	2dd\
.	.	.	2ee\
.	4c\	.	.
=44	=44	=44	=44
0G]	2d\	1g]	2.dd\
.	2e\	.	.
.	.	.	4cc\
.	2.d\	2r	1b
.	.	2d\	.
.	4c\	.	.
=45	=45	=45	=45
1r	1d	2d\	2r
.	.	2d\	2dd\
2r	1r	1d	2dd\
2G\	.	.	2dd\
=46	=46	=46	=46
2G\	0r	2.B\	1dd
2G\	.	.	.
.	.	4c\	.
1G	.	1d	1b
=47	=47	=47	=47
2.E\	0r	[0e	0r
4F\	.	.	.
1G	.	.	.
=48	=48	=48	=48
2A\	2r	1e]	2r
2A\	2e\	.	2cc\
2A\	2e\	2r	2cc\
2A\	2e\	2a\	2cc\
=49	=49	=49	=49
2.F\	2.f\	1a	2r
.	.	.	2cc\
4G\	8e\L	.	.
.	8d\J	.	.
4A\	4c\	2a\	2.cc\
4B\	4B\	.	.
[2c\	[2e\	2A/	.
.	.	.	4b\
=50	=50	=50	=50
4c\]	2e\]	2c\	2a/
4A\	.	.	.
2B\	1d	2d\	2g/
1A	.	1e	1a
.	2c#i\	.	.
=51	=51	=51	=51
2B\	[0d	2d\	0r
2G\	.	1g	.
1d	.	.	.
.	.	2f#i\	.
=52	=52	=52	=52
1G	1d]	2g\	2r
.	.	2r	2b\
1r	1r	2e\	2cc\
.	.	2f\	2dd\
=53	=53	=53	=53
0r	0r	2g\	2dd\
.	.	2g\	2.dd\
.	.	2.g\	.
.	.	.	4cc\
.	.	.	[2b\
.	.	4f\	.
=54	=54	=54	=54
0r	0r	1e	2b\]
.	.	.	2b\
.	.	2e\	2cc\
.	.	2f\	2a/
=55	=55	=55	=55
0r	0r	2d\	2b\
.	.	2e\	2cc\
.	.	2f\	1dd
.	.	[2g\	.
=56	=56	=56	=56
2r	2r	2g\]	2ee\
1A	1e	1a	1cc
2A\	2e\	2A/	2cc\
=57	=57	=57	=57
2F\	2f\	2c\	2a/
2G\	4e\	2B\	2b\
.	4d\	.	.
2A\	2c\	2A/	2cc\
2D\	2d\	2F/	[2a/
=58	=58	=58	=58
2E\	2d\	1G	4a/]
.	.	.	4g/
2E\	2c\	.	1g
1D	1d	1A	.
.	.	.	2f#i/
=59	=59	=59	=59
2r	2r	2G/	2g/
2A\	2e\	2c\	2a/
2A\	2e\	2c\	2a/
2A\	2e\	2c\	2a/
=60	=60	=60	=60
2F\	2f\	2A/	2a/
2G\	4e\	2B\	4g/
.	4d\	.	4f/
2A\	2c\	2c\	2e/
2D\	[2d\	4B\	2f/
.	.	4A/	.
=61	=61	=61	=61
1E	2d\]	1G	4e/
.	.	.	4d/
.	2c\	.	1g
1D	[1d	1A	.
.	.	.	2f#i/
=62	=62	=62	=62
2r	1d]	0G	1g
2d\	.	.	.
2e\	1r	.	2r
2d\	.	.	[2dd\
=63	=63	=63	=63
2B\	0r	1r	2dd\]
2c\	.	.	2ee\
2B\	.	2r	2dd\
2G\	.	[2g\	2b\
=64	=64	=64	=64
0r	0r	2g\]	2cc\
.	.	2a\	2cc\
.	.	2g\	2b\
.	.	2e\	2ee\
=65	=65	=65	=65
1r	0r	2f\	2ee\
.	.	2f\	2dd\
2r	.	2e\	2ee\
2c\	.	2a\	2ee\
=66	=66	=66	=66
2d\	2r	2a\	2ff\
2e\	2e\	2g\	2ee\
1A	2f\	[1a	2cc\
.	2e\	.	[2ee\
=67	=67	=67	=67
2r	2c\	1a]	2ee\]
2F\	2d\	.	1dd
2G\	1e	2r	.
2A\	.	2a\	2cc#i\
=68	=68	=68	=68
2D\	2d\	2b-i\	1dd
1D	2A/	2a\	.
.	2B-\	2f\	2r
2D\	2A/	[2a\	[2dd\
=69	=69	=69	=69
2D\	2F/	4a\]	4dd\]
.	.	4g\	4dd\
2D\	2G/	1g	4dd\
.	.	.	4dd\
2D\	2A/	.	2dd\
2D\	2A/	2f#i\	2dd\
=70	=70	=70	=70
*	*^	*	*
0Gl	0G\l	0d/l	0gl	0bl
*	*v	*v	*	*
!!LO:LB:i:g=z
=71||	=71||	=71||	=71||
*>B	*>B	*>B	*>B
*clefF4	*clefGv2	*clefGv2	*clefG2
*k[]	*k[]	*k[]	*k[]
*M2/1	*M2/1	*M2/1	*M2/1
*met(C|)	*met(C|)	*met(C|)	*met(C|)
!!section: Et resurrexit
!!!OMD: Et resurrexit
0r	0r	0r	1dd
.	.	.	2dd\
.	.	.	2ee\
=72	=72	=72	=72
0r	0r	2r	1dd
.	.	2d\	.
.	.	1d	1b
=73	=73	=73	=73
2r	1c	1e	0r
2C/	.	.	.
2.G\	2.B\	1d	.
4A\	4c\	.	.
=74	=74	=74	=74
1G	1d	1B	1r
1E	1e	2r	2r
.	.	2g\	2ee\
=75	=75	=75	=75
0r	0r	2f\	2ff\
.	.	2g\	2ee\
.	.	2a\	2cc\
.	.	2d\	[2dd\
=76	=76	=76	=76
0r	0r	1e	2dd\]
.	.	.	2cc#i\
.	.	4d\	1dd
.	.	4c\	.
.	.	4B\	.
.	.	4A/	.
=77	=77	=77	=77
2r	2B\	1G	0r
2E\	2c\	.	.
2F\	1d	1r	.
[2G\	.	.	.
=78	=78	=78	=78
2G\]	2B\	0r	0r
2E\	2c\	.	.
2F\	1d	.	.
[2G\	.	.	.
=79	=79	=79	=79
2G\]	1e	2r	2r
1A	.	2c\	2ee\
.	2r	2.c\	2ff\
2A\	2e\	.	2ee\
.	.	4c\	.
=80	=80	=80	=80
2A\	2f\	2c\	2r
2A\	2e\	2c\	2ee\
2A\	2r	2A/	2ff\
2A\	2e\	[2a\	2ee\
=81	=81	=81	=81
2A\	2f\	2a\]	2cc\
2B\	4d\	2g\	1dd
.	4d\	.	.
1A	1e	1a	.
.	.	.	2cc#i\
=82	=82	=82	=82
1D	1d	1f	1dd
2r	2.B\	1d	1r
2F\	.	.	.
.	4c\	.	.
=83	=83	=83	=83
2G\	2d\	2r	2.b\
2G\	2d\	2g\	.
.	.	.	4cc\
1G	1d	2g\	2dd\
.	.	2g\	2dd\
=84	=84	=84	=84
2r	2r	1g	1b
2G\	2d\	.	.
2G\	2d\	2r	2r
2G\	2d\	2g\	2b\
=85	=85	=85	=85
1G	1d	2g\	2b\
.	.	2g\	2b\
2.E\	2r	1g	1b
.	2e\	.	.
4F\	.	.	.
=86	=86	=86	=86
2G\	2d\	0r	0r
1A	2c\	.	.
.	1B	.	.
2G#i\	.	.	.
=87	=87	=87	=87
1A	2c\	2r	2r
.	2A/	2e\	2cc\
1r	2B\	2d\	2b\
.	2c\	2c\	[2a/
=88	=88	=88	=88
0r	1d	1B	2a/]
.	.	.	2g#i/
.	1e	1A	2a/
.	.	.	2ee\
=89	=89	=89	=89
2r	1r	2r	2ee\
2A\	.	2c\	2ee\
2F\	2r	2d\	2ff\
[2c\	2a\	[2e\	4ee\
.	.	.	4ff\
=90	=90	=90	=90
2c\]	2g\	2e\]	2ff\
2d\	2f\	1a	1dd
2A\	2e\	.	.
2A\	2e\	2a\	2cc#i\
=91	=91	=91	=91
0D	1d	1a	0dd
.	1r	1r	.
=92	=92	=92	=92
3%2GV	3%2BV	3%2eV	0r
3A\Z	3c\Z	3f\Z	.
3%2BV	3%2dV	3%2gV	.
3B\Z	3d\Z	3g\Z	.
=93	=93	=93	=93
3%2BV	3%2dV	3%2gV	0r
3B\Z	3d\Z	3g\Z	.
3.A\V	3.c\V	3.f\V	.
6B\	6d\	6g\	.
3c\Z	3e\Z	3a\Z	.
=94	=94	=94	=94
3%2dV	3%2fV	3%2b-iV	0r
3c\Z	3e\Z	3a\Z	.
3B\V	3%2dV	3%2gV	.
3%2AZ	.	.	.
.	3c\Z	3f#i\Z	.
=95	=95	=95	=95
0G	1d	1g	1r
.	1r	2r	2.b\
.	.	2e\	.
.	.	.	4cc\
=96	=96	=96	=96
0r	0r	2f\	2dd\
.	.	2g\	2dd\
.	.	2g\	2dd\
.	.	[2g\	2dd\
=97	=97	=97	=97
0r	0r	2g\]	2ee\
.	.	2g\	2dd\
.	.	2a\	2cc\
.	.	2g\	2b\
=98	=98	=98	=98
0r	0r	2f\	2a/
.	.	2e\	2ee\
.	.	2d\	2ff\
.	.	2g\	2ee\
=99	=99	=99	=99
1r	0r	2a\	2cc\
.	.	2f\	2dd\
2r	.	2g\	2dd\
2A\	.	2a\	2cc#i\
=100	=100	=100	=100
2B\	0r	2d\	2dd\
2G\	.	1g	2b\
1d	.	.	1a
.	.	2f#i\	.
=101	=101	=101	=101
3%2GV	3%2B	0r	0r
3A\Z	3c\	.	.
3%2B-iV	3%2d	.	.
3B-\Z	3d\	.	.
=102	=102	=102	=102
3B-i\V	3d\V	0r	0r
3B-i\	3d\	.	.
3B-i\Z	3d\Z	.	.
3A\V	3.c\V	.	.
3F\	.	.	.
.	6d\	.	.
3G\Z	3e\Z	.	.
=103	=103	=103	=103
3%2AV	3%2fV	0r	0r
3G\Z	3e\Z	.	.
3F\V	3%2dV	.	.
3%2EZ	.	.	.
.	3c#i\Z	.	.
=104	=104	=104	=104
2D\	1d	1r	1r
1d	.	.	.
.	1r	2r	2b\
2e\	.	2e\	2cc\
=105	=105	=105	=105
4d\	0r	2f\	1dd
4c\	.	.	.
4B\	.	1g	.
4A\	.	.	.
1G	.	.	2dd\
.	.	[2g\	2ee\
=106	=106	=106	=106
0r	0r	2g\]	2dd\
.	.	2a\	2cc\
.	.	2.g\	1b
.	.	4f\	.
=107	=107	=107	=107
0r	0r	2e\	2cc\
.	.	2f\	2a/
.	.	2d\	2b\
.	.	2e\	2cc\
=108	=108	=108	=108
0r	0r	2f\	1dd
.	.	1g	.
.	.	.	1ee
.	.	[2a\	.
=109	=109	=109	=109
2r	2r	2a\]	2r
2A\	2e\	2a\	2ee\
2D\	2d\	2a\	2ff\
2A\	2e\	2a\	2ee\
=110	=110	=110	=110
2A\	2c\	2a\	2ee\
2B\	2d\	2g\	2dd\
1A	1e	1a	2dd\
.	.	.	2cc#i\
=111	=111	=111	=111
0D	1d	1f	0dd
.	1r	1r	.
=112	=112	=112	=112
0r	3%2BV	3%2dV	0r
.	3c\Z	3e\Z	.
.	3%2dV	3%2fV	.
.	3d\Z	3f\Z	.
=113	=113	=113	=113
0r	3%2dV	3%2fV	0r
.	3d\Z	3f\Z	.
.	3.c\V	3.e\V	.
.	6d\	6f\	.
.	3e\Z	3g\Z	.
=114	=114	=114	=114
0r	3%2fV	3%2aV	0r
.	3e\Z	3g\Z	.
.	3%2dV	3f\V	.
.	.	3%2eZ	.
.	3c#i\Z	.	.
=115	=115	=115	=115
1r	1d	0d	1r
2r	2.B\	.	2r
2G\	.	.	2dd\
.	4c\	.	.
=116	=116	=116	=116
1.G	1d	2r	2b\
.	.	2g\	2b\
.	1d	[1g	1b
2G\	.	.	.
=117	=117	=117	=117
1G	1d	2g\]	2b\
.	.	2g\	2b\
2C/	2c\	1g	2.cc\
2C/	2e\	.	.
.	.	.	8b\L
.	.	.	8cc\J
=118	=118	=118	=118
2G\	2d\	2g\	4b\
.	.	.	4a/
2A\	2c\	2f\	1a
1E	1B	2e\	.
.	.	2e\	2g#i/
=119	=119	=119	=119
0A	1A	1c	1a
.	1e	2r	2r
.	.	2a\	2cc\
=120	=120	=120	=120
2r	1f	2a\	2cc\
2A\	.	2a\	2cc\
2A\	4e\	2a\	2cc\
.	4e\	.	.
2A\	4e\	2a\	2cc\
.	4e\	.	.
=121	=121	=121	=121
2A\	2c\	2e\	2.cc\
2A\	2e\	2c\	.
.	.	.	4b\
2D\	2f\	1d	4a/
.	.	.	4g/
2D\	[2d\	.	[2a/
=122	=122	=122	=122
2E\	2d\]	1G	4a/]
.	.	.	4g/
2E\	2c\	.	1g
1D	1d	1A	.
.	.	.	2f#i/
=123	=123	=123	=123
2.E\	1r	1G	2g/
.	.	.	2.b\
4F\	.	.	.
2G\	2.B\	1r	.
.	.	.	4cc\
2G\	.	.	2dd\
.	4c\	.	.
=124	=124	=124	=124
2G\	2d\	2r	2dd\
2G\	2d\	2d\	2dd\
1F	2d\	2f\	2r
.	2d\	2f\	2a/
=125	=125	=125	=125
1A	1c	2e\	2cc\
.	.	2f\	2cc\
2G\	1e	2g\	2b\
2E\	.	2g\	2g/
=126	=126	=126	=126
2F\	2d\	2f\	0r
2G\	2B\	2d\	.
2E\	2c\	1r	.
2F\	2d\	.	.
=127	=127	=127	=127
2G\	2B\	0r	0r
2A\	2c\	.	.
1F	1d	.	.
=128	=128	=128	=128
2E\	0e	0r	0r
4A\	.	.	.
4G\	.	.	.
4A\	.	.	.
4G\	.	.	.
2A\	.	.	.
=129	=129	=129	=129
2E\	2r	0r	0r
2A\	2e\	.	.
2D\	4f\	.	.
.	4e\	.	.
[2A\	4f\	.	.
.	4e\	.	.
=130	=130	=130	=130
2A\]	2f\	0r	0r
2G\	2.e\	.	.
2F\	.	.	.
.	4d\	.	.
2D\	[2d\	.	.
=131	=131	=131	=131
1E	2d\]	0r	1r
.	2c#i\	.	.
1D	1d	.	2r
.	.	.	[2dd\
=132	=132	=132	=132
0G	0r	1r	2dd\]
.	.	.	2ee\
.	.	2r	2dd\
.	.	2g\	2b\
=133	=133	=133	=133
0r	0r	2e\	2cc\
.	.	2f\	2a/
.	.	2g\	2b\
.	.	2a\	2cc\
=134	=134	=134	=134
0r	0r	1f	1dd
.	.	2e\	1ee
.	.	4a\	.
.	.	4g\	.
=135	=135	=135	=135
0r	0r	4a\	2r
.	.	4g\	.
.	.	2a\	2ee\
.	.	2d\	4ff\
.	.	.	4ee\
.	.	[2a\	4ff\
.	.	.	4ee\
=136	=136	=136	=136
0r	0r	2a\]	2ff\
.	.	2g\	2ee\
.	.	2f\	2a/
.	.	2d\	[2dd\
=137	=137	=137	=137
1r	1r	1e	2dd\]
.	.	.	2cc#i\
2r	2.B\	2d\	1dd
2G\	.	2g\	.
.	4c\	.	.
=138	=138	=138	=138
2D\	2d\	2f\	0r
2D\	2d\	2f\	.
2A\	1e	4e\	.
.	.	4f\	.
2E\	.	4g\	.
.	.	4a\	.
=139	=139	=139	=139
2G\	2d\	2b\	0r
2A\	2c\	2a\	.
1E	1B	2a\	.
.	.	2g#i\	.
=140	=140	=140	=140
2F\	1A	[0a	0r
2.D\	.	.	.
.	2r	.	.
4E\	.	.	.
4F\	[2A/	.	.
4G\	.	.	.
=141	=141	=141	=141
2.A\	4A/]	0a]	0r
.	4B\	.	.
.	4c\	.	.
4B\	4d\	.	.
4c\	4e\	.	.
4B\	4d\	.	.
4A\	[2f\	.	.
4G\	.	.	.
=142	=142	=142	=142
4A\	4f\]	1r	0r
4E\	4e\	.	.
2G\	1e	.	.
1F	.	1a	.
.	2d\	.	.
=143	=143	=143	=143
2E\	2e\	2r	2r
2C/	2e\	2.g\	2cc\
2G\	2d\	.	2b\
.	.	4f\	.
2A\	2c\	4f\	2a/
.	.	4e\	.
=144	=144	=144	=144
1G	1d	1g	1b
2C/	2e\	2G/	2cc\
[2F\	[2c\	[2A/	[2a/
=145	=145	=145	=145
4F\]	4c\]	4A/]	4a/]
4G\	4B\	4B\	4g/
2E\	2G/	4c\	1g
.	.	8B\L	.
.	.	8c\J	.
1D	1A	2.d\	.
.	.	.	2f#i/
.	.	4f\	.
=146	=146	=146	=146
[0G	[0Bl	4e\	[0gl
.	.	4d\	.
.	.	4e\	.
.	.	4d\	.
.	.	4e\	.
.	.	4d\	.
.	.	[2g\	.
=147	=147	=147	=147
0G]	0B_	4g\]	0g_
.	.	4f\	.
.	.	1e	.
.	.	2d\	.
=148	=148	=148	=148
0El	0B]	0el	0g]
==	==	==	==
*-	*-	*-	*-
!!!RDF**kern: l=long note in original notation
!!!RDF**kern: i=editorial accidental
!!!RDF**kern: V=start of tuplet marker
!!!RDF**kern: Z=end of tuplet marker
!!!ENC:	Megan K. Eagen 2014/09/22
!!!END:	2014/09/22/
!!!EED:	Jesse Rodin
!!!EEV:	2014/10/12/
!!!ONB:	Translated from MusicXML and edited on 2014/10/12/ by Craig Sapp
!!muse2ps: C^@{COM}^i2I150v85,85,85,150Q16
